X:1
T:Title
%%score { ( 1 3 ) | ( 2 4 ) }
L:1/8
M:4/4
K:C
V:1 treble nm="Grand Piano"
V:3 treble 
V:2 bass 
V:4 bass 
V:1
 z4 z2[Q:1/4=92] F>A | c>c c>c c>_B G>E | F>C F>A c2 c>^c | d>d d>d [_Bd]>B G>B | %4
 d>^c d>e d2 (3=cd_e | [E_Be]2 [EBe]2 [EBe]2 [CEBc]2 | [CFA]>F A>c [F^G^cf]2 z2 | z2 ^G2 z2 B2 | %8
[M:3/4] [EGc]>[FB] [EGc]>[FB] [EGc]2 |[M:1/4] (3cde |[M:4/4] [Af]2 [Ae]2 [Ad]2 [Ac]>[Ac] | %11
 [Ed]2 [Ec]2 E2 C>C | E>C E>G _B>G B>c | [Ad]>[Ac] [^GB]>[Gd] [CAc]2 (3cde | %14
 [Af]2 [Ae]2 [Ad]>[Ad] [Ac]>[Ac] | [Ed]>[Ed] [Ec]>[Ec] E2 C>C | E>C E>[Ed] [Ec]>[E_B] D>E | %17
[M:3/4] F6 |] %18
V:2
 z8 | [F,,F,]2 [^F,,^F,]2 [G,,G,]2 [C,_B,]2 | [F,A,C]>C, F,>A, C2 z2 | %3
 [_B,,_B,]2 [A,,A,]2 [G,,G,]2 [G,,G,]>[B,,B,] | [D,D]>[^C,^C] [D,D]>[E,E] [D,D]2 z2 | %5
 z z/[K:treble] _e/ z z/ e/[K:bass] z z/ d/ z z/[K:treble] _B/ | %6
 F,>F, A,>C [^C,^G,]2[K:treble] c>A | z z/ G/ [F,,F,]2 z z/ A/ D,>[G,,G,] | %8
[M:3/4] C,>[G,,G,] C,>[G,,G,] C,2 |[M:1/4][K:treble] (3C-[CB][C_B] | %10
[M:4/4][K:bass] [F,C]2 [C,C]2 [F,C]2 [C,C]>[C,C] | [G,_B,]2 [C,B,]2 [G,B,C]2 C,>C, | %12
 E,>C, E,>G, _B,>G, B,>C | [F,C]>[F,C] [F,D]>[F,B,] F,2[K:treble] (3C-[CB][C_B] | %14
 [F,C]2 [C,C]2 [F,C]>[F,C] [C,C]>[C,C] | [G,_B,]>[G,B,] [C,B,]>[C,B,] [G,B,C]2 C,>C, | %16
 E,>C, E,>[C,_B,] [C,B,]>[C,G,] [C,B,C]>[C,B,C] |[M:3/4] [F,A,C]6 |] %18
V:3
 x8 | [CFA]2 [C_EA]2 [C=E]2 z2 | x8 | [DF_B]2 [D^Fc]2 [DG]2 z2 | x8 | x8 | x8 | %7
 [G,CEG]2 _B,->[B,^G] [C^FA]2 =F->[FB] |[M:3/4] x6 |[M:1/4] x2 |[M:4/4] x8 | x8 | x8 | x8 | x8 | %15
 x8 | x8 |[M:3/4] x6 |] %18
V:4
 x8 | x8 | x8 | x8 | x8 | [G,,G,]2[K:treble] C,2[K:bass] [G,,G,]2 C,2[K:treble] | x6[K:treble] x2 | %7
 G,,2 z2 [_E,,_E,]2 z2 |[M:3/4] x6 |[M:1/4][K:treble] x2 |[M:4/4][K:bass] x8 | x8 | x8 | %13
 x6[K:treble] x2 | x8 | x8 | x8 |[M:3/4] x6 |] %18

